Yosa-Max-Dark/actions/22x22/view-list-tree.svg

<?xml version="1.0" encoding="UTF-8"?>
<svg id="svg4" version="1.1" viewBox="0 0 22 22" xmlns="http://www.w3.org/2000/svg">
 <path id="rect858" d="m2 3v6h6v-2h6v2h6v-6h-6v2h-6v-2zm14 2h2v2h-2z" style="fill:#dfdfdf"/>
 <path id="rect864" d="m14 13v2h-4v2h4v2h6v-6zm2 2h2v2h-2z" style="fill:#dfdfdf"/>
 <rect id="rect870" transform="rotate(90)" x="5.8249078" y="-11.999956" width="10.174963" height="2" style="fill:#dfdfdf"/>
</svg>

<?xml version="1.0" encoding="UTF-8" standalone="no"?>
<svg
   xmlns:dc="http://purl.org/dc/elements/1.1/"
   xmlns:cc="http://creativecommons.org/ns#"
   xmlns:rdf="http://www.w3.org/1999/02/22-rdf-syntax-ns#"
   xmlns:svg="http://www.w3.org/2000/svg"
   xmlns="http://www.w3.org/2000/svg"
   id="svg4"
   version="1.1"
   viewBox="0 0 22 22">
  <metadata
     id="metadata10">
    <rdf:RDF>
      <cc:Work
         rdf:about="">
        <dc:format>image/svg+xml</dc:format>
        <dc:type
           rdf:resource="http://purl.org/dc/dcmitype/StillImage" />
        <dc:title></dc:title>
      </cc:Work>
    </rdf:RDF>
  </metadata>
  <defs
     id="defs8" />
  <path
     id="rect858"
     d="M 2,3 V 9 H 8 V 7 h 6 v 2 h 6 V 3 H 14 V 5 H 8 V 3 Z m 14,2 h 2 v 2 h -2 z"
     style="opacity:1;vector-effect:none;fill:#dfdfdf;fill-opacity:1;stroke:none;stroke-width:0.48999998;stroke-linecap:butt;stroke-linejoin:miter;stroke-miterlimit:4;stroke-dasharray:none;stroke-dashoffset:0;stroke-opacity:1" />
  <path
     id="rect864"
     d="m 14,13 v 2 h -4 v 2 h 4 v 2 h 6 v -6 z m 2,2 h 2 v 2 h -2 z"
     style="opacity:1;vector-effect:none;fill:#dfdfdf;fill-opacity:1;stroke:none;stroke-width:0.48999998;stroke-linecap:butt;stroke-linejoin:miter;stroke-miterlimit:4;stroke-dasharray:none;stroke-dashoffset:0;stroke-opacity:1" />
  <rect
     transform="rotate(90)"
     y="-11.999956"
     x="5.8249078"
     height="2"
     width="10.174963"
     id="rect870"
     style="opacity:1;vector-effect:none;fill:#dfdfdf;fill-opacity:1;stroke:none;stroke-width:0.48999998;stroke-linecap:butt;stroke-linejoin:miter;stroke-miterlimit:4;stroke-dasharray:none;stroke-dashoffset:0;stroke-opacity:1" />
</svg>
